X:224
T: NUN SCHUERZ DICH GRETLEIN
N: E0113
O: Europa, Mitteleuropa, Deutschland, Sueddeutschland
R: erzaehlendes Volks - Lied, Schalk -, Schelmen - Lied, betrogene Liebe
M: 3/4
L: 1/8
K: F
c2 | c4c2- | c2B2A2 | F4G2 | F4
F2 | c4c2- | c2B2A2 | G3AB2 | A4
G2 | F2F2E2C2 | D4E2 | F4
A2 | G4F2 | E2D4 | C6- | C2z2
c2 | c4B2 | A2G4 | F6- | F2z2

